icons/media/play-fill-square-24.svg

<svg width="24" height="24" viewBox="0 0 24 24" fill="none" xmlns="http://www.w3.org/2000/svg">
<path fill-rule="evenodd" clip-rule="evenodd" d="M3.75 2C2.7835 2 2 2.7835 2 3.75V20.25C2 21.2165 2.7835 22 3.75 22H20.25C21.2165 22 22 21.2165 22 20.25V3.75C22 2.7835 21.2165 2 20.25 2H3.75ZM3.5 3.75C3.5 3.61193 3.61193 3.5 3.75 3.5H20.25C20.3881 3.5 20.5 3.61193 20.5 3.75V20.25C20.5 20.3881 20.3881 20.5 20.25 20.5H3.75C3.61193 20.5 3.5 20.3881 3.5 20.25V3.75Z" fill="black"/>
<path d="M9.5 8.41616V15.5852C9.50015 15.6748 9.52442 15.7628 9.57026 15.8399C9.61611 15.917 9.68184 15.9803 9.76057 16.0233C9.83931 16.0662 9.92814 16.0872 10.0178 16.084C10.1074 16.0808 10.1945 16.0536 10.27 16.0052L15.846 12.4212C15.9166 12.3759 15.9747 12.3137 16.0149 12.2401C16.0552 12.1665 16.0763 12.084 16.0763 12.0002C16.0763 11.9163 16.0552 11.8338 16.0149 11.7602C15.9747 11.6867 15.9166 11.6244 15.846 11.5792L10.27 7.99616C10.1945 7.94773 10.1074 7.9205 10.0178 7.91731C9.92814 7.91412 9.83931 7.9351 9.76057 7.97804C9.68184 8.02099 9.61611 8.08432 9.57026 8.1614C9.52442 8.23848 9.50015 8.32648 9.5 8.41616Z" fill="black"/>
</svg>

<svg xmlns="http://www.w3.org/2000/svg" width="24" height="24"><path fill-rule="evenodd" d="M3.75 2A1.75 1.75 0 002 3.75v16.5c0 .966.784 1.75 1.75 1.75h16.5A1.75 1.75 0 0022 20.25V3.75A1.75 1.75 0 0020.25 2H3.75zM3.5 3.75a.25.25 0 01.25-.25h16.5a.25.25 0 01.25.25v16.5a.25.25 0 01-.25.25H3.75a.25.25 0 01-.25-.25V3.75z"/><path d="M9.5 8.416v7.17a.5.5 0 00.77.42l5.576-3.585a.5.5 0 000-.842L10.27 7.996a.5.5 0 00-.77.42z"/></svg>
